X:118
M:3/4
L:1/4
K:G
G | E C A | F D G | B B A | G2 G | E C A | F D G | B B A | G2 G | B B d | B G G | B B d | A2 !sintro!B | G E A | F D G | B B A | G2 !eintro!|]
